X:1
T:Reverie
T:Rêverie
T:Claude Debussy
C:Claude Debussy
%%score { ( 1 5 ) | ( 2 3 4 6 ) }
L:1/8
Q:1/4=76
M:4/4
K:F
V:1 treble nm="Piano" snm="Pno."
V:5 treble 
V:2 treble 
V:3 treble 
V:4 treble 
V:6 treble 
V:1
"^Andantino sognando" z8[Q:1/4=80] | z8[Q:1/4=86][Q:1/4=92] |!p![Q:1/4=96] g4 d4- | %3
 d2!<(! ef!<)!!p! g2 ed |!>(! (3e2 c2 e2!>)!!p! d4- | d4[Q:1/4=88] B2 d2 | %6
[Q:1/4=102]!<(! e2 f2!<)!!p! c4- | c4[Q:1/4=88]!>(! G4!>)! |[Q:1/4=102]!p! A8- | %9
!p! A8[Q:1/4=84][Q:1/4=80] | a4 e4-[Q:1/4=102] | e2[Q:1/4=84]!<(! ce d2 BG!<)![Q:1/4=80] | %12
!mf![Q:1/4=102] a4!mp! e4- | e2!mp![Q:1/4=84] ce d2 B!p!G[Q:1/4=80] |[Q:1/4=102]"_dim." g4 d4- | %15
 d2 Bd c2 AG | A2 EA F2 DF |[Q:1/4=80] D4[Q:1/4=76] C4 |!pp![Q:1/4=102] _e8- | e4 _e4[Q:1/4=88] | %20
[Q:1/4=102] _e4 [Geg]4- |"_cresc." [Geg]4[Q:1/4=88] [_Ec_e]2 [Gg]2 |!p![Q:1/4=102] d4 [Fdf]4- | %23
 [Fdf]4[Q:1/4=88] d4 |[Q:1/4=102] f8 | [Ada]4[Q:1/4=88] d4 |[Q:1/4=102]!mf! [f^c'f']4!mp! [^cc']4 | %27
 z2!p! d!<(!e[Q:1/4=88] f2 fa!<)! |!f![Q:1/4=102] [f^c'f']4!mf! [^cc']4 | z2 de!>(! f2 fa | %30
 [Af]2 DE!>)!!p! F2 FA |[Q:1/4=88] F4[Q:1/4=68] D4- |[Q:1/4=88] [=B,D]2 C2[Q:1/4=102] c4 | %33
[Q:1/4=88]!>(! cegc'[Q:1/4=80] gecG!>)! |!pp![Q:1/4=102] _ecGc ecGc | _ecGc ec[Q:1/4=88]Gc | %36
[Q:1/4=102] a^fdf afdf |[Q:1/4=88] a^fdf[Q:1/4=80] dA^FA |!pp![Q:1/4=102] _ecGc ecGc | %39
!<(! _ecGc ge[Q:1/4=88]ce!<)! |!mp![Q:1/4=102] ^g!pp!=ece gece | ^gece[Q:1/4=88] gcge | %42
!p![Q:1/4=102] acAc!pp! acAc | acAc acAc | =bf=Bf c'_bab | c'bfb c'beb | c'acg d'adb | %47
[Q:1/4=88] dADB!p![Q:1/4=76] A,2 G,2 | F,4!mp! F4- | F4!p![Q:1/4=60] A4 | %50
[Q:1/4=92]!p! [df]2 [=Be]2 [Be]2 [df]2 |[Q:1/4=82]!>(! [df]2 [=Be]2!>)!!pp! [Be]4 | %52
[Q:1/4=92]!p! [DF]2 [=B,E]2 [B,E]2[Q:1/4=82] (3FAF | %53
[Q:1/4=76] [=B,F]2!pp! [_B,D]2 [A,C]4[Q:1/4=66] |!p![Q:1/4=92] [df]2 [=Be]2 [Be]2 (3f=ga | %55
!>(! (3faf[Q:1/4=76] e2!>)!!pp! [=Be]4 |!p![Q:1/4=92] [B,E]2 [A,^C]2 [^A,C]2 [=B,E]2 | %57
[Q:1/4=82] [=C^F]2 [^D^G]2[Q:1/4=76] [=B,E]4[Q:1/4=66] || %58
[K:E]!pp![Q:1/4=92] [Acf]2 [Bdg]2 [GBe]2 [egc']2 | [Acf]2 (3gfg e2 B2 | %60
[Q:1/4=82] [DEG]2 [CEB]2 [B,EG]2 [G,CE]2 |[Q:1/4=76] [A,DF]4 [DAc]4 | %62
[Q:1/4=92] [cf]2 [dg]2 [Be]2 [ec']2 | f2 (3gfg e2 b2 |[Q:1/4=86]!p! c'2 e'2 d'2 b2 | %65
[Q:1/4=92] c'2 e'2 f'2 b2 |[Q:1/4=96] c'2 e'2 d'2 b2 | %67
[Q:1/4=86] c'2!>(! e'2[Q:1/4=80] f'2!>)!!pp! b2 ||[K:C][Q:1/4=92]!pp! f'4 e'4 | d'4 c'4 | %70
!p! [A,D]2 [B,E]2 C2 A2 |[Q:1/4=80] D2 (3EDE[Q:1/4=72]!pp! C4 | %72
[Q:1/4=80] d2 (3ede[Q:1/4=72]!pp! c4 | %73
!pp!!<(! (3ceg (3_bc'e'!<)!!p! (3g'[Q:1/4=64]!>(!e'c' (3bg!>)!!pp!e || %74
[M:3/4][Q:1/4=60]"_poco rit." c_BG[Q:1/4=56]E[I:staff +1]C_B, || %75
[K:F][M:4/4]!p![Q:1/4=98]"^Tempo I"[I:staff -1] z4 g'!pp!d'c'b | z4!pp! g'd'[Q:1/4=80]c'b | %77
!p![Q:1/4=98] z4[Q:1/4=74][Q:1/4=96] g'!pp!d'c'b | z4[Q:1/4=86] g'd'c'b | %79
!p![Q:1/4=98] e2 f2!pp! f'c'ba | z4!pp![Q:1/4=86] e'bag |!p![Q:1/4=98] A8- |!p! A8 | %83
[Q:1/4=102]!p! a4 e4- | e2!<(! ce[Q:1/4=92] d2[Q:1/4=80] BG!<)! |!p![Q:1/4=102] a4 e4- | %86
 e2 ce[Q:1/4=92] d2[Q:1/4=80] BG |[Q:1/4=102] g4 d4- | d2 Bd[Q:1/4=92] c2[Q:1/4=80] AF | %89
[Q:1/4=102] g4 d4- |!>(! d2 Bd!>)![Q:1/4=80]!pp! [Gc]2 [^Fd]2[Q:1/4=92]"^poco rit." | %91
 [DGB]2 [^CEA]2 [CEA]2 [DGB]2 |[Q:1/4=72] [DGB]2!pp! [^CEA]2 [CEA]4 | %93
[Q:1/4=92]!pp! [GB]2 [EA]2 [EA]2!pp! (3BdB | A2 G2[Q:1/4=80] F4 | %95
!p![Q:1/4=92] [gb]2 [ea]2 [ea]2 [gb]2 | [gb]2 [ea]2[Q:1/4=80] [ea]4 | %97
!pp![Q:1/4=92] [gb]2 [ea]2 [ea]2[Q:1/4=80]"_rall. e perdendosi" (3bd'b | a4[Q:1/4=70] g4 | %99
[Q:1/4=50]!pp! [af'a']8[Q:1/4=43][Q:1/4=30] |!ppp! !fermata![Aca]8 |] %101
V:2
!pp!!ped! B,CDG- G!ped-up!!ped!DCB,- | B,!ped-up!!ped!CDG- G!ped-up!!ped!DCB,- | %2
!pp! B,!ped-up!!ped!CDG- G!ped-up!!ped!DCB,- | B,!ped-up!!ped!CDG- G!ped-up!!ped!DCB,- | %4
 B,!ped-up!!ped!CDG- G!ped-up!!ped!DCB, | B,!ped-up!!ped!CDG- G!ped-up!!ped!DCB,!ped-up! | %6
[K:bass]!ped! A,B,CF- F!ped-up!!ped!ECB,!ped-up! |!pp!!ped! G,A,B,E- E!ped-up!!ped!B,A,G,!ped-up! | %8
!p!!ped! F,,!pp!C,-[I:staff -1]A,F DA,CD |[I:staff +1] F,,C,-[I:staff -1]A,F DA,CD!ped-up! | %10
!ped![I:staff +1] D,,A,,D,F, A,CEC | A,F,A,C!ped-up!!ped! G,,D,G,B,!ped-up! | %12
!p!!ped! D,,!pp!A,,D,F, A,!>(!CEC | A,F,A,C!ped-up!!ped! G,,D,!>)!G,B,!ped-up! | %14
!ped!"_dim." C,,G,,E,G, B,DED | B,DB,G,!ped-up!!ped! F,,C,F,A,!ped-up! | %16
!ped! x2[I:staff -1] C2!ped-up!!ped![I:staff +1] x2[I:staff -1] A,2!ped-up! | %17
!ped![I:staff +1] G,,F,G,[I:staff -1][G,B,]!ped-up!!ped![I:staff +1] C,,G,,E,[I:staff -1][G,B,]!ped-up! | %18
!p!!ped![I:staff +1] F,,,!ppp!F,,C,_E, G,A,C_E | G_ECA, G,_E,C,F,,!ped-up! | %20
!p!!ped!"_cresc." F,,,!ppp!F,,C,_E, G,A,C_E | G_ECA, G,_E,C,F,,!ped-up! | %22
!p!!ped! B,,,!pp!F,,B,,D, F,B,DF | DB,F,D, B,,F,,B,,,F,,!ped-up! | %24
!p!!ped! B,,,!pp!F,,!<(!B,,D, F,B,DF | DB,F,D, B,,F,,B,,,F,,!ped-up!!<)! | %26
!mp!!ped! G,,,G,,^C,F,!p! A,^CFA!ped-up! |!ped! G,,D,!<(!F,A, DA,F,D,!ped-up!!<)! | %28
!mp!!ped! G,,,G,,^C,F, A,^CFA!ped-up! |!ped! G,,D,F,A,!>(! DA,F,D,!ped-up! | %30
!ped! G,,D,F,A,!>)!!pp! DA,F,D,!ped-up! |!ped! G,,D,F,A, =B,A,G,F,!ped-up! | %32
!ped! C,,G,,C,E, G,CEG | z8!ped-up! |!p! C2!ped! B,A, G,4- | G,2!ped-up!!ped! A,B, C2 C_E!ped-up! | %36
!ped! D8 |!p! D,,4!p! D,,,4!ped-up! |!p! C2!ped! B,A, G,4- | %39
!<(! G,2!ped-up!!ped! A,B, C2 C_E!<)!!ped-up! |!ped! =E8- | E4!p!!<(! ^D2 E2!ped-up!!<)! | %42
!mf!!ped!!>(! =G2 FE!ped-up!!>)!!p!!ped! =D4- | D4 E2 F2!ped-up! |!ped! F2 ED!ped-up!!ped! C4- | %45
 C4 D2 E2!ped-up! |!ped! E2 DC!ped-up!!ped! x4 | x8!ped-up!!ped!!ped-up! | %48
!ped! F,,,F,,C,A,- A,2 z2 | z8!ped-up! | %50
[K:treble]!ped! [DA]2!ped-up!!ped! [E^G]2!ped-up!!ped! [EG]2!ped-up!!ped! [DA]2!ped-up! | %51
!ped!!>(! [DA]2!ped-up!!ped! [E^G]2!ped-up!!ped! [EG]4!>)!!ped-up! | %52
[K:bass] [D,A,]2!ped! [E,^G,]2 [E,G,]2!ped-up!!ped! [D,A,]2!ped-up! | %53
!p! F,2[I:staff -1] E,2!ped! F,4!ped-up! | %54
[I:staff +1][K:treble]!ped! [DA]2!ped-up!!ped! [E^G]2!ped-up!!ped! [EG]2!ped-up!!ped! [DA]2!ped-up! | %55
!ped! [DA]2!ped-up! [E^G]2!ped! [EG]4 |[K:bass] ^G,2!ped-up! ^F,2 ^^F,2 ^G,2 | %57
 =A,2[I:staff -1] =B,2!ped! ^G,4!ped-up! ||[K:E][I:staff +1] B,,,2!ped! B,,4 B,2- | %59
 B,2!ped-up!!ped! B,,4 B,2- | B,2!ped-up!!ped! B,,4 B,2- | B,2!ped-up!!ped! B,,4 F,2!ped-up! | %62
[K:treble]!ped! A2 B2 G2 B2!ped-up! |!ped! A2 B2 G2 B2!ped-up! |!ped! B8!ped-up!!ped!!ped-up! | %65
!ped! B8!ped-up!!ped!!ped-up! |!ped! B8!ped-up!!ped!!ped-up! |!ped! B8!ped-up!!ped!!ped-up! || %68
[K:C]!p!!ped! x8!ped-up!!ped!!ped-up! |!ped! x8!ped-up!!ped!!ped-up! | %70
[K:bass]!pp!!ped! (3F,G,F, (3G,F,G,!ped-up!!ped! (3E,G,E, (3G,E,G,!ped-up! | %71
!ped! (3F,G,F, (3G,F,G,!ped-up!!ped! (3C,,G,,E, (3G,_B,C!ped-up! | %72
!ped! (3FGF (3GFG!ped-up!!ped! (3C,G,C (3E[I:staff -1]G_B!ped-up! | %73
!ped![I:staff +1] z8!ped-up!!ped!!ped-up! ||[M:3/4]!ped! x6!ped-up! || %75
[K:F][M:4/4][K:treble]!pp!!ped! x4!p! d4- |!pp! d4!ped-up!!p!!ped! z4!ped-up! | %77
!pp!!ped! x4!ped-up!!p!!ped! d4- |!pp! d4!ped-up!!p!!ped! B2 d2!ped-up! | %79
!pp!!ped! z4!ped-up!!p!!ped! c4- |!pp! c4!ped-up!!p!!ped! G4!ped-up! | %81
[K:bass]!p!!ped! F,,!pp!C,-[I:staff -1]A,F DA,CD | %82
[I:staff +1] F,,C,-[I:staff -1]A,F DA,CF!ped-up! |!ped![I:staff +1] !>!D,,A,,D,F, A,CEC | %84
 A,F,A,C!ped-up!!ped! G,,D,G,B,!ped-up! |!p!!ped! D,,!pp!A,,D,F, A,CEC | %86
 A,F,A,C!ped-up!!ped! G,,D,G,B,!ped-up! |!p!!ped! _E,,!pp!B,,_E,G, B,_EGE | %88
 B,G,_E,B,,!ped-up!!ped! !>!_E,,C,F,A,!ped-up! |!p!!ped! !>!_E,,!pp!B,,_E,G, B,_EGE | %90
 B,G,_E,B,,!ped-up!!ped! A,,E,!ped-up!!ped!A,,D,,!ped-up! | %91
!ped! !>!G,,,8!ped-up!!ped!!ped-up!!ped!!ped-up!!ped!!ped-up! |!ped! G,,8!ped-up!!ped!!ped-up! | %93
 D2!ped! ^C2 C2!ped-up! D2 |!ped! [A,^C]4!ped-up! z2[K:treble]!ped! A2!ped-up! | %95
!ped! d2!ped-up!!ped! ^c2!ped-up!!ped! c2 d2 | d2 ^c2!ped-up!!ped! c4!ped-up! | %97
!ped! d2 ^c2 c2 d2!ped-up! |!ped! [=CB]8!ped-up! | %99
[K:bass]!p!!ped! F,,,!pp!!>(!F,,C,F, (3G,2 C2 F2-!ped-up!!>)! |!ped! !fermata!F8!ped-up! |] %101
V:3
 B,8- | B,8- | B,8 | x8 | x8 | x8 |[K:bass] x8 | x8 | F,,8 | F,,8 | x8 | x8 | x8 | x8 | x8 | x8 | %16
 A,,E,A,E, D,A,F,D, | x8 | x8 | x8 | x8 | x8 | x8 | x8 | x8 | x8 | x8 | x8 | x8 | x8 | x8 | x8 | %32
 x8 | x8 | x8 | x8 | z2!pp! .A,2!<(! .D,2 .A,,2!<)! | x8 | x8 | x8 | x8 | x8 | x8 | x8 | %44
 [^G,=B,]4 [=G,_B,]4- | [G,B,]8 | [F,A,]4 !arpeggio![G,,D,B,]4- | [G,,D,B,]4!pp! C,,C,B,E | x8 | %49
 x8 |[K:treble] x8 | x8 |[K:bass] x8 | G,,2 C,,2 F,,2 F,,,2 |[K:treble] x8 | x8 |[K:bass] =B,,8 | %57
 =B,,6 E,,2 ||[K:E] x8 | x8 | x8 | x8 |[K:treble] B,8 | B,6 G2 | =G4 F4 | E4 D4 | =G2 (3AGA F4 | %67
 E2 (3FEF D4 ||[K:C] D2 E2 C2 A2 | D2 (3EDE C2 A,2 |[K:bass] G,,8 | G,,8 | G,4 x4 | x8 || %74
[M:3/4] x6 ||[K:F][M:4/4][K:treble] B,CDG z4 | B,CDG g2 ed | B,CDG z4 | B,CDG z4 | A,B,CF z4 | %80
 G,A,B,E z4 |[K:bass] F,,8 | F,,8 | x8 | x8 | x8 | x8 | x8 | x8 | x8 | x8 | x8 | x8 | x8 | %94
 x4 [D,A,]4[K:treble] | x8 | G6 F2 | E6 D2 | x8 |[K:bass] x8 | x8 |] %101
V:4
 x8 | x8 | x8 | x8 | x8 | x8 |[K:bass] x8 | x8 | x2 C,6 | x2 C,6 | x8 | x8 | x8 | x8 | x8 | x8 | %16
 x8 | x8 | x8 | x8 | x8 | x8 | x8 | x8 | x8 | x8 | x8 | x8 | x8 | x8 | x8 | x8 | x8 | x8 | x8 | %35
 x8 | x8 | x8 | x8 | x8 | x8 | x8 | x8 | x8 | x8 | x8 | x8 | x8 | x8 | x8 |[K:treble] x8 | x8 | %52
[K:bass] x8 | x8 |[K:treble] x8 | x8 |[K:bass] x8 | x8 ||[K:E] x8 | x8 | x8 | x8 |[K:treble] x8 | %63
 x8 | x8 | x8 | x8 | x8 ||[K:C] x8 | x8 |[K:bass] x8 | x8 | x8 | x8 ||[M:3/4] x6 || %75
[K:F][M:4/4][K:treble] x8 | x8 | x8 | x8 | x8 | x8 |[K:bass] x2 C,6 | x2 C,6 | x8 | x8 | x8 | x8 | %87
 x8 | x8 | x8 | x8 | x8 | x8 | x8 | x6[K:treble] x2 | x8 | x8 | x8 | x8 |[K:bass] x8 | x8 |] %101
V:5
 x8 | x8 | x8 | x8 | x8 | x8 | x8 | x8 | x8 | x8 | x8 | x8 | x8 | x8 | x8 | x8 | x8 | x8 | %18
 [cc']4 [Gg]4- | [Gg]2 [Aa][Bb] [cc']2 [Aa][Gg] | (3[Aa]2 [Ff]2 [Aa]2 x4 | x8 | [Aa]2 [Bb]2 x4 | %23
 x4 [Aa]2 [Bb]2 | [cc']2!<(! [dd']2 [Ada]4- | x4 [Bb]2 [dd']2!<)! | x8 | x2 A4 z2 | x8 | x2 A4 z2 | %30
 x8 | x8 | x8 | x8 | [_EG]2 z2 [EG]2 z2 | [_EG]2 z2 [EG]2 z2 | [Ad]8 | [Ad]8 | [_EG]2 z2 [EG]2 z2 | %39
 [_EG]2 z2 [Gc]2 z2 | [^Gc]8 | [^Gc]8 |[I:staff +1] [A,C]8- | [A,C]8 | x8 | x8 | x8 | x8 | x8 | %49
 x8 | x8 | x8 |[I:staff -1] x6 D2 | x8 | x6 d2 | d2 =B2 z2 =B,2- | x8 | x8 ||[K:E] x8 | %59
 x2 [Bd]2 [GB]2 [EG]2 | x8 | x8 | x8 | c2 d2 B2 e2 | e4 f4 | =g4 f4 | e4 f4 | =g4 f4 || %68
[K:C] (3g'gg' (3gg'g (3g'gg' (3gg'g | (3g'gg' (3gg'g (3g'gg' (3gg'g | x4 C4 | A,4 _B,4 | %72
 A2 =B2 _B4 | x8 ||[M:3/4] x6 ||[K:F][M:4/4] g4 x4 | x2!p! ef x4 | ec e2 x4 | x8 | x8 | x8 | x8 | %82
 x8 | x8 | x8 | x8 | x8 | x8 | x8 | x8 | x4 C4 | x8 | x8 | x6 G2 | E4 D4 | x8 | x8 | x6 g2 | e8 | %99
 x8 | x8 |] %101
V:6
 x8 | x8 | x8 | x8 | x8 | x8 |[K:bass] x8 | x8 | x8 | x8 | x8 | x8 | x8 | x8 | x8 | x8 | x8 | x8 | %18
 x8 | x8 | x8 | x8 | x8 | x8 | x8 | x8 | x8 | x8 | x8 | x8 | x8 | x8 | x8 | x8 | x8 | x8 | ^F8 | %37
 x8 | x8 | x8 | x8 | x8 | x8 | x8 | x8 | x8 | x8 | x8 | x8 | x8 |[K:treble] x8 | x8 |[K:bass] x8 | %53
 x8 |[K:treble] x8 | x8 |[K:bass] x8 | x8 ||[K:E] x8 | x8 | x8 | x8 |[K:treble] x8 | x8 | x8 | x8 | %66
 x8 | x8 ||[K:C] [FB]4 [Ec]4 | [FB]4 [Ec]4 |[K:bass] x8 | x8 | x8 | x8 ||[M:3/4] x6 || %75
[K:F][M:4/4][K:treble] x8 | x8 | x8 | x8 | x8 | x8 |[K:bass] x8 | x8 | x8 | x8 | x8 | x8 | x8 | %88
 x8 | x8 | x8 | x8 | x8 | x8 | x6[K:treble] x2 | x8 | x8 | x8 | x8 |[K:bass] x8 | x8 |] %101

